X:1
T:The Jolly Tinker
M:4/4
L:1/8
K:D
 D| F2 E F2 G| A3 B2 A| F2 E F2 G| A3 ^G2 A| B2 F F2 F| F F2 E2 E|\
 D2 DD D2| B,3 z3|
M:4/4
 A,A,D DB,B, A,A,| DDD D B,2 A,2|
